X:1
T:The Links of Montrose
M:3/4
L:1/4
K:G
d/2-c/2| B3/2 ^A/2 B| G A B| G A B| c z c/2c/2| c B A| D d d| e d B|\
 A z d/2c/2| B3/2 ^A/2 B| G A B| G A B| c zc/2-c/2| c B A| D d3/2 d/2|\
 e d F| G3|
